X:157
T: AN EINEM FLUSS DER RAUSCHEND SCHOSS
N: B0647A
O: Europa, Mitteleuropa, Deutschland, Pfalz; Odenwald; Elsass
N: Schlusston korrigiert (Druckfehler ?)
R: Moral - Lied, Ballade
M: 4/4
L: 1/8
K: G
D2 | G2BGD2G2 | E2GEE2z
G | F2G2A2B2 | A4z2
D2 | c3BA2d2 | B3AG2
B2 | A3GA2B2 | G4z2

